icons/svg/cursor-move.svg

<svg xmlns="http://www.w3.org/2000/svg" version="1.1" baseProfile="full" width="24" height="24" viewBox="0 0 24.00 24.00" xml:space="preserve"><path fill="#000" fill-opacity="1" stroke-width=".2" stroke-linejoin="round" d="M13 6v5h5V7.75L22.25 12 18 16.25V13h-5v5h3.25L12 22.25 7.75 18H11v-5H6v3.25L1.75 12 6 7.75V11h5V6H7.75L12 1.75 16.25 6H13z"/></svg>

﻿<?xml version="1.0" encoding="utf-8"?>
<!DOCTYPE svg PUBLIC "-//W3C//DTD SVG 1.1//EN" "http://www.w3.org/Graphics/SVG/1.1/DTD/svg11.dtd">
<svg xmlns="http://www.w3.org/2000/svg" xmlns:xlink="http://www.w3.org/1999/xlink" version="1.1" baseProfile="full" width="24" height="24" viewBox="0 0 24.00 24.00" enable-background="new 0 0 24.00 24.00" xml:space="preserve">
	<path fill="#000000" fill-opacity="1" stroke-width="0.2" stroke-linejoin="round" d="M 13,6L 13,11L 18,11L 18,7.75L 22.25,12L 18,16.25L 18,13L 13,13L 13,18L 16.25,18L 12,22.25L 7.75,18L 11,18L 11,13L 6,13L 6,16.25L 1.75,12L 6,7.75L 6,11L 11,11L 11,6L 7.75,6L 12,1.75001L 16.25,6.00001L 13,6 Z "/>
</svg>
